img/leaf.svg

<svg width="43" height="41" viewBox="0 0 43 41" fill="none" xmlns="http://www.w3.org/2000/svg">
<path d="M25.034 0.476562L23.914 0.733635C23.914 0.733635 15.051 2.63717 11.184 9.33706C6.776 16.9752 11.72 24.2783 11.72 24.2783L12.87 25.9657L14.315 24.5123C14.315 24.5123 15.59 23.172 17.985 22.3577C20.381 21.5435 23.721 21.2744 28.078 23.7901C34.566 27.5372 37.096 33.6129 37.839 35.5695C35.819 36.4797 28.531 39.4656 21.405 35.3504C18.158 33.4759 16.389 31.5213 15.401 30.1979C18.119 29.8248 20.539 30.1239 22.587 30.6751C26.907 31.8364 29.438 34.1491 29.438 34.1491L31.691 31.7184C31.691 31.7184 30.908 30.9722 29.481 30.0799C27.6036 28.9066 25.5652 28.0137 23.43 27.4292C15.401 26.2138 4.394 25.4936 0 38.0131L4.395 38.0442C5.985 33.5589 8.29701 31.6824 11.329 31.0892C12.312 32.5896 15.301 35.6785 19.737 38.2402C29.769 44.0338 40.919 38.0101 40.919 38.0101L42.129 37.384L41.735 36.0716C41.735 36.0716 38.697 26.0688 29.745 20.8993C28.3147 20.0724 26.7767 19.4476 25.175 19.0428C26.116 17.8995 27.075 16.4741 27.743 14.3835C29.984 7.41352 25.709 1.40783 25.709 1.40783L25.034 0.476562ZM23.469 4.44968C24.23 5.77006 25.915 9.03898 24.539 13.3162C23.849 15.4558 22.842 16.8602 22.009 17.6974C21.179 18.5337 20.682 18.7367 20.682 18.7367C19.342 18.8127 17.95 18.8447 16.896 19.1998C16.642 19.2859 16.406 19.4059 16.174 19.5049C16.581 18.6037 17.014 17.7094 17.497 16.8972C18.2421 15.6379 19.0487 14.416 19.914 13.2362L17.282 11.1736C17.282 11.1736 15.969 12.8841 14.612 15.1707C13.9821 16.2341 13.4099 17.3306 12.898 18.4556C12.4 16.5721 12.35 14.0444 14.096 11.0195C16.523 6.81335 21.746 4.99084 23.469 4.44968Z" fill="#232B30"/>
</svg>

<svg width="43" height="41" fill="none" xmlns="http://www.w3.org/2000/svg"><path d="M25.034.477l-1.12.257s-8.863 1.903-12.73 8.603c-4.408 7.638.536 14.941.536 14.941l1.15 1.688 1.445-1.454s1.275-1.34 3.67-2.154c2.396-.814 5.736-1.084 10.093 1.432 6.488 3.747 9.018 9.823 9.761 11.78-2.02.91-9.308 3.896-16.434-.22-3.247-1.874-5.016-3.829-6.004-5.152 2.718-.373 5.138-.074 7.186.477 4.32 1.161 6.851 3.474 6.851 3.474l2.253-2.43s-.783-.747-2.21-1.64a22.752 22.752 0 00-6.051-2.65C15.401 26.214 4.394 25.494 0 38.013l4.395.031c1.59-4.485 3.902-6.362 6.934-6.955.983 1.5 3.972 4.59 8.408 7.151 10.032 5.794 21.182-.23 21.182-.23l1.21-.626-.394-1.312s-3.038-10.003-11.99-15.173a17.888 17.888 0 00-4.57-1.856c.941-1.143 1.9-2.569 2.568-4.66 2.241-6.97-2.034-12.975-2.034-12.975l-.675-.931zM23.469 4.45c.761 1.32 2.446 4.589 1.07 8.866-.69 2.14-1.697 3.544-2.53 4.381-.83.837-1.327 1.04-1.327 1.04-1.34.076-2.732.108-3.786.463-.254.086-.49.206-.722.305.407-.901.84-1.796 1.323-2.608a44.54 44.54 0 012.417-3.66l-2.632-2.063s-1.313 1.71-2.67 3.997a34.403 34.403 0 00-1.714 3.285c-.498-1.884-.548-4.412 1.198-7.436 2.427-4.207 7.65-6.03 9.373-6.57z" fill="#232B30"/></svg>
